public/images/conqure-frame.svg

<svg width="1506" height="1239" viewBox="0 0 1506 1239" fill="none" xmlns="http://www.w3.org/2000/svg">
<path d="M1440.33 0C1476.6 0.000197916 1506 29.4013 1506 65.6689V1173.28C1506 1209.55 1476.6 1238.95 1440.33 1238.95H65.6689C29.4012 1238.95 6.59806e-05 1209.55 0 1173.28V65.6689C0 29.4012 29.4012 0 65.6689 0H1440.33ZM743.908 111.007C557.004 111.276 370.102 120.022 183.366 137.245C137.346 140.996 97.7356 182.826 87.8291 225.88C47.3404 476.122 45.4801 725.742 82.248 975.922C82.3627 976.702 82.4794 977.482 82.5947 978.263C82.7934 979.606 82.9915 980.949 83.1924 982.292C83.3649 983.446 83.5397 984.599 83.7139 985.753C83.8464 986.631 83.9788 987.508 84.1123 988.386C84.3472 989.931 84.5834 991.477 84.8213 993.022C84.8734 993.361 84.9263 993.699 84.9785 994.037C85.2639 995.886 85.5512 997.736 85.8408 999.585C85.8546 999.673 85.868 999.761 85.8818 999.85C86.5202 1003.92 87.1672 1008 87.8262 1012.07C91.9281 1029.9 101.123 1047.51 113.757 1062.3L113.759 1062.31C113.997 1062.59 114.237 1062.86 114.478 1063.14C114.584 1063.26 114.691 1063.38 114.798 1063.51C116.14 1065.04 117.519 1066.54 118.934 1068.01C119.501 1068.59 120.075 1069.18 120.654 1069.75C120.924 1070.02 121.194 1070.29 121.466 1070.55C121.923 1071 122.384 1071.45 122.848 1071.89C123.315 1072.33 123.787 1072.77 124.262 1073.2C124.328 1073.27 124.394 1073.33 124.46 1073.39C125.001 1073.88 125.546 1074.37 126.096 1074.86C126.37 1075.1 126.645 1075.34 126.921 1075.58C127.323 1075.93 127.728 1076.27 128.135 1076.62C143.955 1089.96 163.035 1099.05 183.366 1100.71C562.766 1135.7 942.853 1135.7 1322.25 1100.71C1364.6 1094.22 1408.01 1059.82 1417.06 1016.1C1417.14 1015.72 1417.21 1015.33 1417.29 1014.94C1417.4 1014.34 1417.51 1013.74 1417.62 1013.14C1417.62 1013.12 1417.62 1013.1 1417.63 1013.08C1417.68 1012.74 1417.74 1012.41 1417.79 1012.07C1418.11 1010.12 1418.42 1008.17 1418.73 1006.22C1418.94 1004.9 1419.15 1003.58 1419.36 1002.26C1419.46 1001.6 1419.57 1000.93 1419.67 1000.27C1419.7 1000.1 1419.72 999.941 1419.75 999.778C1460.22 741.609 1459.57 484.076 1417.79 225.88C1410.66 180.252 1365.89 143.928 1322.25 137.245C1135.52 120.022 948.614 111.276 761.709 111.007C755.776 110.998 749.842 110.998 743.908 111.007Z" fill="#F2512C"/>
<path d="M0 1175V73C7.41569 84.005 36.8976 126.763 93.5 208C39.5 445 47 875 102.5 1047.5L0 1175Z" fill="#CD3F39"/>
<path d="M1505.5 1177V75C1498.08 86.005 1470.1 127.263 1413.5 208.5C1457.5 403.5 1467.5 845.5 1403 1050.5L1505.5 1177Z" fill="#CD3F39" stroke="#CD3F39"/>
</svg>

<svg xmlns="http://www.w3.org/2000/svg" width="1506" height="1239" fill="none" xmlns:v="https://vecta.io/nano"><path d="M1440.33 0C1476.6 0 1506 29.401 1506 65.669V1173.28c0 36.27-29.4 65.67-65.67 65.67H65.669c-36.268 0-65.669-29.4-65.669-65.67V65.669C0 29.401 29.401 0 65.669 0H1440.33zM743.908 111.007c-186.904.269-373.806 9.015-560.542 26.238-46.02 3.751-85.63 45.581-95.537 88.635C47.34 476.122 45.48 725.742 82.248 975.922l.347 2.341.598 4.029.521 3.461.398 2.633.709 4.636.157 1.015.862 5.548.041.265 1.944 12.22c4.102 17.83 13.297 35.44 25.931 50.23l.002.01.719.83.32.37a132 132 0 0 0 4.136 4.5l1.72 1.74.812.8 1.382 1.34 1.414 1.31c.066.07.132.13.198.19l1.636 1.47.825.72 1.214 1.04c15.82 13.34 34.9 22.43 55.231 24.09 379.4 34.99 759.487 34.99 1138.884 0 42.35-6.49 85.76-40.89 94.81-84.61l.23-1.16.33-1.8c0-.02 0-.04.01-.06l.16-1.01.94-5.85.63-3.96.31-1.99.08-.492c40.47-258.169 39.82-515.702-1.96-773.898-7.13-45.628-51.9-81.952-95.54-88.635-186.73-17.223-373.636-25.969-560.541-26.238a5868.07 5868.07 0 0 0-17.801 0z" fill="#f2512c"/><g fill="#cd3f39"><path d="M0 1175V73l93.5 135c-54 237-46.5 667 9 839.5L0 1175z"/><path d="M1505.5 1177V75l-92 133.5c44 195 54 637-10.5 842l102.5 126.5z" stroke="#cd3f39"/></g></svg>
